src/assets/DetailTopBoxesSvg1.svg

<svg width="36" height="52" viewBox="0 0 36 52" fill="none" xmlns="http://www.w3.org/2000/svg">
<path d="M9.92078 24.7667C8.92763 26.7169 8.59372 28.9445 8.97044 31.1113L11.5561 51.2459C11.6074 51.6793 11.9756 52 12.4037 52H24.39C24.8181 52 25.1862 51.6793 25.2376 51.2459L27.8146 31.2847L27.8318 31.1113C28.2085 28.9445 27.8746 26.7169 26.8814 24.7667L25.2461 20.6323V17.4947C25.5629 16.6626 26.9585 12.8749 26.9585 10.396C26.9585 9.24323 26.7787 8.09912 26.4277 7.00702C26.2307 6.4263 26.1194 5.81957 26.1023 5.20418C26.2051 3.82605 26.479 2.45658 26.9157 1.14779C27.0698 0.69708 26.8215 0.203032 26.3763 0.0470173C26.1879 -0.0223227 25.9739 -0.0136552 25.7855 0.0643522C23.4225 1.00911 20.9311 1.5725 18.3968 1.73718C15.8626 1.5725 13.3711 1.00911 11.0081 0.0643522C10.5715 -0.108998 10.0749 0.0990222 9.8951 0.549732C9.81804 0.740417 9.81804 0.948437 9.87797 1.14779C10.3146 2.46525 10.5886 3.82605 10.6913 5.20418C10.6742 5.81957 10.5629 6.4263 10.3574 7.01569C10.0064 8.11646 9.83516 9.26057 9.83516 10.4047C9.83516 12.8836 11.2307 16.6713 11.5475 17.5034V20.641L9.91222 24.7754L9.92078 24.7667ZM11.9756 2.23989C14.0475 2.9593 16.2136 3.37534 18.4054 3.46201C20.5972 3.37534 22.7633 2.9593 24.8352 2.23989C24.5783 3.20199 24.4328 4.19875 24.3985 5.19551C24.4157 5.97559 24.5527 6.74699 24.7924 7.48373C25.1006 8.41982 25.2547 9.40792 25.2547 10.396C25.0578 12.4762 24.5698 14.5217 23.8078 16.4633H13.003C12.241 14.5217 11.753 12.4762 11.5561 10.396C11.5561 9.40792 11.7102 8.42849 12.0184 7.48373C12.2667 6.74699 12.3951 5.97559 12.4122 5.19551C12.378 4.19875 12.2324 3.20199 11.9756 2.23989ZM23.5424 19.9303H13.2684V18.1968H23.5424V19.9303ZM12.9944 21.6638H23.8249L25.3232 25.4515C25.3232 25.4515 25.3489 25.5121 25.3574 25.5381C26.1965 27.2023 26.4705 29.1005 26.1366 30.938L23.6537 50.2665H13.1742L10.7085 31.1113L10.6913 30.938C10.3574 29.1005 10.6314 27.2023 11.4704 25.5381C11.4876 25.5121 11.4961 25.4861 11.5132 25.4515L13.003 21.6638H12.9944Z" fill="#F6AE24"/>
<path d="M22.6862 32.9315C17.9259 32.9315 13.842 29.6899 13.7992 29.6552L12.729 31.0073C12.9174 31.1547 17.3095 34.665 22.6776 34.665V32.9315H22.6862Z" fill="#F6AE24"/>
<path d="M14.9807 39.8655V41.599C17.9259 41.5037 20.6742 40.1082 22.515 37.7853L21.1451 36.7452C19.6211 38.6261 17.378 39.7615 14.9807 39.8655Z" fill="#F6AE24"/>
<path d="M21.83 7.79576C19.3044 7.79576 16.7958 7.50973 14.33 6.95501L13.9105 8.63651C16.5047 9.23457 19.1588 9.52926 21.8215 9.52926V7.79576H21.83Z" fill="#F6AE24"/>
<path d="M20.9739 12.1295C17.8831 12.1295 14.6725 9.72861 14.6383 9.70261L13.6109 11.0894C13.7564 11.2021 17.3095 13.863 20.9739 13.863V12.1295Z" fill="#F6AE24"/>
<path d="M21.83 23.3973H20.1177V25.1308H21.83V23.3973Z" fill="#F6AE24"/>
<path d="M19.2615 25.9975H17.5492V27.731H19.2615V25.9975Z" fill="#F6AE24"/>
<path d="M17.5492 46.7995H15.8369V48.533H17.5492V46.7995Z" fill="#F6AE24"/>
<path d="M33.8164 12.9963H32.104V14.7298H33.8164V12.9963Z" fill="#F6AE24"/>
<path d="M33.8164 16.4633H32.104V18.1968H33.8164V16.4633Z" fill="#F6AE24"/>
<path d="M32.104 14.7298H30.3917V16.4633H32.104V14.7298Z" fill="#F6AE24"/>
<path d="M35.5287 14.7298H33.8164V16.4633H35.5287V14.7298Z" fill="#F6AE24"/>
<path d="M3.85057 25.9975H2.13823V27.731H3.85057V25.9975Z" fill="#F6AE24"/>
<path d="M3.85057 29.4645H2.13823V31.198H3.85057V29.4645Z" fill="#F6AE24"/>
<path d="M2.13823 27.731H0.425903V29.4645H2.13823V27.731Z" fill="#F6AE24"/>
<path d="M5.5629 27.731H3.85057V29.4645H5.5629V27.731Z" fill="#F6AE24"/>
</svg>

<svg xmlns="http://www.w3.org/2000/svg" width="36" height="52" fill="none"><path fill="#F6AE24" d="M9.92 24.767a10.15 10.15 0 0 0-.95 6.344l2.586 20.135c.051.433.42.754.848.754H24.39c.428 0 .796-.32.848-.754l2.577-19.961.017-.174a10.15 10.15 0 0 0-.95-6.344l-1.636-4.135v-3.137c.317-.832 1.713-4.62 1.713-7.099 0-1.153-.18-2.297-.531-3.389a6.1 6.1 0 0 1-.326-1.803c.103-1.378.377-2.747.814-4.056a.875.875 0 0 0-.54-1.101.82.82 0 0 0-.59.017 24.1 24.1 0 0 1-7.39 1.673A24.1 24.1 0 0 1 11.009.064.855.855 0 0 0 9.895.55a.9.9 0 0 0-.017.598c.437 1.317.71 2.678.813 4.056a6 6 0 0 1-.334 1.812 11.2 11.2 0 0 0-.522 3.389c0 2.479 1.396 6.266 1.712 7.098v3.138l-1.635 4.134zM11.977 2.24a22.3 22.3 0 0 0 6.43 1.222 22.3 22.3 0 0 0 6.43-1.222 13.3 13.3 0 0 0-.437 2.956c.017.78.154 1.551.393 2.288.309.936.463 1.924.463 2.912a22.4 22.4 0 0 1-1.447 6.067H13.003a22.4 22.4 0 0 1-1.447-6.067c0-.988.154-1.968.462-2.912a7.7 7.7 0 0 0 .394-2.288 13.3 13.3 0 0 0-.436-2.956m11.566 17.69H13.268v-1.733h10.274zm-10.548 1.734h10.83l1.5 3.787s.025.061.033.087a8.6 8.6 0 0 1 .78 5.4l-2.483 19.329h-10.48L10.71 31.11l-.018-.173a8.6 8.6 0 0 1 .78-5.4c.017-.026.025-.052.042-.087l1.49-3.787z"/><path fill="#F6AE24" d="M22.686 32.932c-4.76 0-8.844-3.242-8.887-3.277l-1.07 1.352c.188.148 4.58 3.658 9.949 3.658v-1.733zM14.98 39.866v1.733a10.03 10.03 0 0 0 7.535-3.814l-1.37-1.04a8.4 8.4 0 0 1-6.164 3.12M21.83 7.796c-2.526 0-5.034-.286-7.5-.841l-.42 1.682a35.2 35.2 0 0 0 7.912.892V7.796zM20.974 12.13c-3.09 0-6.302-2.401-6.336-2.427l-1.027 1.386c.145.113 3.698 2.774 7.363 2.774zM21.83 23.397h-1.712v1.734h1.712zM19.262 25.998h-1.713v1.733h1.713zM17.55 46.8h-1.713v1.733h1.712zM33.816 12.996h-1.712v1.734h1.712zM33.816 16.463h-1.712v1.734h1.712zM32.104 14.73h-1.712v1.733h1.712zM35.529 14.73h-1.713v1.733h1.713zM3.85 25.998H2.139v1.733h1.713zM3.85 29.465H2.139v1.733h1.713zM2.138 27.731H.426v1.733h1.712zM5.563 27.731H3.85v1.733h1.712z"/></svg>
